X: 49
T: Cooley's
R: reel
M: C|
L: 1/8
K: Edor
GF  |"Em"EBBA B2EB|B2 AB dBAG|"D"F/E/D AD BDAD|F/E/D AD BAGF|
     "Em"EBBA B2EB|B2 AB defg|"D" afec dBAF|DEFD "Em"E2:|
|:gf|"Em"eBB2 eBgf|eBB2 gedB|"D"A2 FA DAFA|A2 FA defg|
"Em"eBB2 eBgf|eBB2 defg|"D"afec dBAF|DEFD "Em"E2:|


